img/gallery__slider.svg

<svg width="43" height="11" viewBox="0 0 43 11" fill="none" xmlns="http://www.w3.org/2000/svg">
<path d="M42.4768 6.38643C42.7401 6.12312 42.7401 5.69621 42.4768 5.43291L38.1859 1.14205C37.9226 0.878746 37.4957 0.878746 37.2324 1.14205C36.9691 1.40536 36.9691 1.83227 37.2324 2.09558L41.0465 5.90967L37.2324 9.72376C36.9691 9.98707 36.9691 10.414 37.2324 10.6773C37.4957 10.9406 37.9226 10.9406 38.1859 10.6773L42.4768 6.38643ZM1.0687 5.43291C0.805386 5.69621 0.805386 6.12312 1.0687 6.38643L5.35955 10.6773C5.62286 10.9406 6.04976 10.9406 6.31307 10.6773C6.57638 10.414 6.57638 9.98707 6.31307 9.72376L2.49898 5.90967L6.31307 2.09558C6.57638 1.83227 6.57638 1.40536 6.31307 1.14205C6.04976 0.878746 5.62286 0.878746 5.35955 1.14205L1.0687 5.43291ZM42 5.23543H1.54546V6.58391H42V5.23543Z" fill="#2468C5"/>
</svg>

<svg xmlns="http://www.w3.org/2000/svg" width="43" height="11" fill="none"><path fill="#2468C5" d="M42.477 6.386a.674.674 0 0 0 0-.953l-4.291-4.29a.674.674 0 1 0-.954.953l3.815 3.814-3.815 3.814a.674.674 0 0 0 .954.953l4.29-4.29ZM1.069 5.433a.674.674 0 0 0 0 .953l4.29 4.291a.674.674 0 0 0 .954-.953L2.5 5.91l3.814-3.814a.674.674 0 0 0-.953-.954l-4.291 4.29ZM42 5.235H1.545v1.349H42V5.235Z"/></svg>
